X: 24032
T: Lon's
R: jig
M: 6/8
K: Eminor
~B3 ABG|~F3 EFG|~A3 AGA|BcB AGF|
~B3 ABG|~F3 EFG|d2(c c)BA|c2(B B3):|
|:~B3 ABg|~f3 efg|(a3 a)gf|efd cBA|
~B3 ABg|~f3 efg|bga fge|fde cBA:|

